public/assets/images/home/features-section/icons/icon-1.svg

<svg id="eP8uYfk2gQN1" xmlns="http://www.w3.org/2000/svg" xmlns:xlink="http://www.w3.org/1999/xlink" viewBox="0 0 50 60" shape-rendering="geometricPrecision" text-rendering="geometricPrecision" project-id="d93189c1d1604b28bc7d8a20dd43d087" export-id="4b6ab38df00a403bab27e993517457ee" cached="false">
<style><![CDATA[
#eP8uYfk2gQN4 {animation: eP8uYfk2gQN4_c_o 3000ms linear infinite normal forwards}@keyframes eP8uYfk2gQN4_c_o { 0% {opacity: 0} 33.333333% {opacity: 1} 100% {opacity: 1}} #eP8uYfk2gQN10 {animation-name: eP8uYfk2gQN10_c_o, eP8uYfk2gQN10_s_do;animation-duration: 3000ms;animation-fill-mode: forwards;animation-timing-function: linear;animation-direction: normal;animation-iteration-count: infinite;}@keyframes eP8uYfk2gQN10_c_o { 0% {opacity: 0} 50% {opacity: 1} 100% {opacity: 1}}@keyframes eP8uYfk2gQN10_s_do { 0% {stroke-dashoffset: 10.22} 50% {stroke-dashoffset: 0} 100% {stroke-dashoffset: 0}} #eP8uYfk2gQN11 {animation-name: eP8uYfk2gQN11_c_o, eP8uYfk2gQN11_s_do;animation-duration: 3000ms;animation-fill-mode: forwards;animation-timing-function: linear;animation-direction: normal;animation-iteration-count: infinite;}@keyframes eP8uYfk2gQN11_c_o { 0% {opacity: 0} 50% {opacity: 1} 100% {opacity: 1}}@keyframes eP8uYfk2gQN11_s_do { 0% {stroke-dashoffset: 7.01} 50% {stroke-dashoffset: 0} 100% {stroke-dashoffset: 0}} #eP8uYfk2gQN12 {animation-name: eP8uYfk2gQN12_c_o, eP8uYfk2gQN12_s_do;animation-duration: 3000ms;animation-fill-mode: forwards;animation-timing-function: linear;animation-direction: normal;animation-iteration-count: infinite;}@keyframes eP8uYfk2gQN12_c_o { 0% {opacity: 0} 50% {opacity: 1} 100% {opacity: 1}}@keyframes eP8uYfk2gQN12_s_do { 0% {stroke-dashoffset: 6.94} 50% {stroke-dashoffset: 0} 100% {stroke-dashoffset: 0}}
]]></style>
<g clip-path="url(#eP8uYfk2gQN13)"><g><g id="eP8uYfk2gQN4" opacity="0"><path d="M24.8702,58.8463L1.14453,32.377L9.28167,20.1001h31.70283L48.8588,32.377L24.8702,58.8463Z" fill="none" stroke="#00aeef" stroke-width="2" stroke-linecap="round" stroke-linejoin="round"/><path d="M1.14453,32.377h47.71427" fill="none" stroke="#00aeef" stroke-width="2" stroke-linecap="round" stroke-linejoin="round"/><path d="M9.28125,20.1001L17.4184,32.377l7.9657-12.2769L33.2698,32.377l7.7143-12.2769" fill="none" stroke="#00aeef" stroke-width="2" stroke-linecap="round" stroke-linejoin="round"/><path d="M17.418,32.377l7.4514,26.4692" fill="none" stroke="#00aeef" stroke-width="2" stroke-linecap="round" stroke-linejoin="round"/><path d="M33.2672,32.377l-8.4,26.4692" fill="none" stroke="#00aeef" stroke-width="2" stroke-linecap="round" stroke-linejoin="round"/></g><path id="eP8uYfk2gQN10" d="M25.0039,11.3653v-10.21149" opacity="0" fill="none" stroke="#00aeef" stroke-width="2" stroke-linecap="round" stroke-linejoin="round" stroke-dashoffset="10.22" stroke-dasharray="10.22"/><path id="eP8uYfk2gQN11" d="M8.07922,15.7731l-4.88-5.0192" opacity="0" fill="none" stroke="#00aeef" stroke-width="2" stroke-linecap="round" stroke-linejoin="round" stroke-dashoffset="7.01" stroke-dasharray="7.01"/><path id="eP8uYfk2gQN12" d="M41.8398,15.6l4.88-4.9269" opacity="0" fill="none" stroke="#00aeef" stroke-width="2" stroke-linecap="round" stroke-linejoin="round" stroke-dashoffset="6.94" stroke-dasharray="6.94"/></g><clipPath id="eP8uYfk2gQN13"><rect width="50" height="60" rx="0" ry="0" fill="#fff"/></clipPath></g></svg>

<svg width="50" height="60" viewBox="0 0 50 60" fill="none" xmlns="http://www.w3.org/2000/svg">
<g clip-path="url(#clip0_621_102)">
<path d="M24.8702 58.8463L1.14453 32.377L9.28167 20.1001H40.9845L48.8588 32.377L24.8702 58.8463Z" stroke="#00AEEF" stroke-width="2" stroke-linecap="round" stroke-linejoin="round"/>
<path d="M1.14453 32.377H48.8588" stroke="#00AEEF" stroke-width="2" stroke-linecap="round" stroke-linejoin="round"/>
<path d="M9.28125 20.1001L17.4184 32.377L25.3841 20.1001L33.2698 32.377L40.9841 20.1001" stroke="#00AEEF" stroke-width="2" stroke-linecap="round" stroke-linejoin="round"/>
<path d="M17.418 32.377L24.8694 58.8462" stroke="#00AEEF" stroke-width="2" stroke-linecap="round" stroke-linejoin="round"/>
<path d="M33.2672 32.377L24.8672 58.8462" stroke="#00AEEF" stroke-width="2" stroke-linecap="round" stroke-linejoin="round"/>
<path d="M25.0039 11.3653V1.15381" stroke="#00AEEF" stroke-width="2" stroke-linecap="round" stroke-linejoin="round"/>
<path d="M8.07922 15.7731L3.19922 10.7539" stroke="#00AEEF" stroke-width="2" stroke-linecap="round" stroke-linejoin="round"/>
<path d="M41.8398 15.6L46.7198 10.6731" stroke="#00AEEF" stroke-width="2" stroke-linecap="round" stroke-linejoin="round"/>
</g>
<defs>
<clipPath id="clip0_621_102">
<rect width="50" height="60" fill="white"/>
</clipPath>
</defs>
</svg>
